Catalina-dark/actions/22/document-print.svg

<?xml version="1.0" encoding="UTF-8" standalone="no"?>
<svg
   xmlns:dc="http://purl.org/dc/elements/1.1/"
   xmlns:cc="http://creativecommons.org/ns#"
   xmlns:rdf="http://www.w3.org/1999/02/22-rdf-syntax-ns#"
   xmlns:svg="http://www.w3.org/2000/svg"
   xmlns="http://www.w3.org/2000/svg"
   xmlns:sodipodi="http://sodipodi.sourceforge.net/DTD/sodipodi-0.dtd"
   xmlns:inkscape="http://www.inkscape.org/namespaces/inkscape"
   viewBox="0 0 22 22"
   id="svg2"
   version="1.1"
   inkscape:version="0.91 r13725"
   sodipodi:docname="document-print.svg">
  <metadata
     id="metadata9">
    <rdf:RDF>
      <cc:Work
         rdf:about="">
        <dc:format>image/svg+xml</dc:format>
        <dc:type
           rdf:resource="http://purl.org/dc/dcmitype/StillImage" />
      </cc:Work>
    </rdf:RDF>
  </metadata>
  <sodipodi:namedview
     pagecolor="#ffffff"
     bordercolor="#666666"
     borderopacity="1"
     objecttolerance="10"
     gridtolerance="10"
     guidetolerance="10"
     inkscape:pageopacity="0"
     inkscape:pageshadow="2"
     inkscape:window-width="640"
     inkscape:window-height="480"
     id="namedview7"
     showgrid="false"
     inkscape:zoom="14.477273"
     inkscape:cx="-9.399544"
     inkscape:cy="11.350589"
     inkscape:current-layer="svg2" />
  <defs
     id="defs3051">
    <style
       type="text/css"
       id="current-color-scheme">
      .ColorScheme-Text {
        color:#f2f2f2
      }
      </style>
  </defs>
  <path
     style="fill:#f2f2f2;fill-opacity:1;stroke:none"
     d="M 7,3 C 6.4482907,3 6,3.4482577 6,4 l 0,2 1,0 0,-2 8,0 0,2 1,0 0,-2 C 16,3.4482577 15.552831,3 15,3 L 7,3 Z"
     id="path3233" />
  <path
     style="fill:#f2f2f2;fill-opacity:1;stroke:none"
     d="M 4 7 C 3.4482907 7 3 7.4482247 3 8 L 3 13 C 3 13.552798 3.4482577 14 4 14 L 6 14 L 6 18 C 6 18.552798 6.4482577 19 7 19 L 15 19 C 15.552831 19 16 18.552798 16 18 L 16 14 L 18 14 C 18.552633 14 19 13.552798 19 13 L 19 8 C 19 7.4482247 18.5526 7 18 7 L 4 7 z M 17 8 C 17.552831 8 18 8.4482577 18 9 C 18.000033 9.5527316 17.552831 10 17 10 C 16.447202 10 16 9.5527646 16 9 C 16 8.4482906 16.447202 8 17 8 z M 7 13 L 15 13 L 15 18 L 7 18 L 7 13 z "
     id="path3231" />
</svg>

<svg version="1.1" viewBox="0 0 22 22" xmlns="http://www.w3.org/2000/svg">
<defs>
<style id="current-color-scheme" type="text/css">.ColorScheme-Text {
        color:#dedede
      }</style>
</defs>
<path d="m7 3c-0.55171 0-1 0.44826-1 1v2h1v-2h8v2h1v-2c0-0.55174-0.44717-1-1-1h-8z" fill="#dedede"/>
<path d="m4 7c-0.55171 0-1 0.44822-1 1v5c0 0.5528 0.44826 1 1 1h2v4c0 0.5528 0.44826 1 1 1h8c0.55283 0 1-0.4472 1-1v-4h2c0.55263 0 1-0.4472 1-1v-5c0-0.55178-0.4474-1-1-1h-14zm13 1c0.55283 0 1 0.44826 1 1 3.3e-5 0.55273-0.44717 1-1 1-0.5528 0-1-0.44724-1-1 0-0.55171 0.4472-1 1-1zm-10 5h8v5h-8v-5z" fill="#dedede"/>
</svg>
